X: 70
T:Sporting Paddy
M:C|
L:1/8
R:Reel
K:ADor
EA~A2 GABG|EAAB G2ED|EA~A2 GABd|edge dBAG|!
EA~A2 GABG|EAAF G2ED|EA~A2 GABd|edge d2ef|]!
ge~e2 gede|ge~e2 a2ba|ge~e2 gedg|efge d2ef|!
ge~e2 gede|ge~e2 a2ga|bgaf gedg|efge dBAG|]!
